X:441
T:Pinch of Snuff, The
R:reel
D:Sean Keane, Liam O'Flynn, Matt Molloy: The Fire Aflame
D:Tommy Keane: The Piper's Apron
Z:id:hn-reel-441
M:C|
K:D
afge d2dB|ADFD EFGB|AGAB =cBcd|eA (3B^cd efge:|
|:f2df afdf|~f2df efge|1 f2df afdf|eA (3B^cd efge:|2 ~f3a afdf|eA (3B^cd efge||
